tools/download-figma-icons/icons/outlined-medium/iban.svg

<svg width="24" height="24" viewBox="0 0 24 24" fill="none" xmlns="http://www.w3.org/2000/svg">
<path fill-rule="evenodd" clip-rule="evenodd" d="M17.0761 10.457H14.6253V19.1211H17.0761V10.457ZM13.1264 10.457H11.7998V19.1128H13.1264V10.457ZM7.58035 10.457H10.3009V19.1211H7.58035V10.457ZM4.74736 10.457H6.07392V19.1128H4.74736V10.457ZM3.25592 10.457H2.31157C1.58459 10.457 1 9.86488 1 9.14539V6.66465C1 6.17749 1.26981 5.72781 1.7045 5.50297L11.8523 0.151767C12.2345 -0.0505891 12.6917 -0.0505891 13.0739 0.151767L23.2292 5.49548C23.6639 5.72032 23.9337 6.17 23.9337 6.65715V9.13789C23.9337 9.86488 23.3417 10.4495 22.6222 10.4495V10.457H21.6778V19.1211H22.6297C23.3566 19.1211 23.9412 19.7132 23.9412 20.4327V22.6886C23.9412 23.4155 23.3491 24.0001 22.6297 24.0001H22.6222H2.31157C1.58459 24.0001 1 23.4081 1 22.6886V20.4327C1 19.7057 1.59208 19.1211 2.31157 19.1211H3.25592V10.457ZM3.25592 8.95802H2.49144V6.77707L12.4594 1.53079L22.4348 6.77707V8.95802H21.6778V8.95752H17.0761V8.95802H14.6253V8.95752H10.3009V8.95802H7.58035V8.95752H3.25592V8.95802ZM18.575 10.457V19.1128H20.1789V10.457H18.575ZM2.49144 22.5012H22.4348V20.6125H2.49144V22.5012Z" fill="black"/>
</svg>

<svg width="24" height="24" viewBox="0 0 24 24" fill="none" xmlns="http://www.w3.org/2000/svg"><path fill-rule="evenodd" clip-rule="evenodd" d="M17.076 10.457h-2.45v8.664h2.45v-8.664Zm-3.95 0H11.8v8.656h1.326v-8.656Zm-5.546 0h2.72v8.664H7.58v-8.664Zm-2.833 0h1.327v8.656H4.747v-8.656Zm-1.491 0h-.944A1.313 1.313 0 0 1 1 9.145v-2.48c0-.488.27-.937.704-1.162L11.852.152c.383-.203.84-.203 1.222 0l10.155 5.343c.435.225.705.675.705 1.162v2.48c0 .728-.592 1.313-1.312 1.313v.007h-.944v8.664h.952c.727 0 1.311.592 1.311 1.312v2.256c0 .727-.592 1.311-1.311 1.311H2.312A1.313 1.313 0 0 1 1 22.69v-2.256c0-.727.592-1.312 1.312-1.312h.944v-8.664Zm0-1.499H2.49v-2.18l9.97-5.248 9.976 5.246v2.181H3.256Zm15.319 1.499v8.656h1.604v-8.656h-1.604ZM2.491 22.501h19.944v-1.889H2.49v1.89Z" fill="currentColor"/></svg>
